dist/img/svg/icon-btn-question.svg

<svg width="31" height="27" viewBox="0 0 31 27" fill="none" xmlns="http://www.w3.org/2000/svg">
<path d="M9.39043 17.1669C8.86323 17.1685 8.3427 17.1523 7.82886 17.0486C7.67513 17.0179 7.54228 17.0754 7.40526 17.1256C6.57476 17.4269 5.74927 17.7428 4.91292 18.0262C3.47584 18.513 2.1549 17.7444 1.91678 16.2922C1.84158 15.8346 1.98529 15.4134 2.195 15.0076C2.49412 14.4285 2.49078 14.4269 2.06049 13.9434C-0.679157 10.8648 -0.690018 6.30971 2.04712 3.22385C3.68556 1.37801 5.76013 0.278118 8.25999 0.0545762C12.2295 -0.300176 15.4153 1.067 17.5676 4.37639C19.4667 7.29702 19.1183 11.2058 16.8098 13.8405C14.8672 16.0565 12.3665 17.1167 9.39043 17.1669ZM12.5595 6.01408C12.5269 5.01786 12.0482 4.25247 11.2043 3.71873C10.3362 3.16959 9.36537 3.04648 8.35189 3.219C7.65591 3.33725 7.03847 3.60938 6.53883 4.10588C6.17455 4.46792 6.13862 4.90285 6.30907 5.34589C6.5029 5.84886 6.96494 6.02461 7.48129 5.83833C7.68014 5.76624 7.84307 5.63989 8.01685 5.52812C8.50813 5.21144 9.0437 5.07699 9.62438 5.22602C10.3797 5.41959 10.6003 6.1947 10.053 6.73007C9.87837 6.90096 9.67033 7.04189 9.47231 7.19011C8.52735 7.89799 8.14636 8.93471 8.44881 9.98277C8.57498 10.4209 8.81644 10.685 9.1072 10.6566C9.49989 10.6178 9.62271 10.3067 9.70793 10.0006C9.8742 9.39719 10.2268 8.9258 10.7314 8.55242C11.013 8.34346 11.3063 8.14826 11.5795 7.92877C12.1952 7.4339 12.5813 6.82321 12.5595 6.01408ZM10.485 12.7268C10.4975 12.0303 10.0664 11.5759 9.38124 11.5621C8.56578 11.5459 8.07952 11.9501 8.06615 12.6556C8.05278 13.3497 8.5591 13.881 9.24506 13.8915C9.9519 13.9029 10.4724 13.4128 10.485 12.7268Z" fill="white"/>
<path d="M30.9994 17.3325C30.9677 19.4983 30.1898 21.3798 28.6901 22.981C28.5313 23.1511 28.4962 23.2791 28.6124 23.4815C28.8137 23.8347 29.0159 24.1919 29.0519 24.6082C29.1997 26.2977 27.6323 27.4389 25.9872 26.8387C25.1567 26.5358 24.3262 26.2345 23.4965 25.93C23.347 25.8749 23.2049 25.8579 23.0412 25.8789C19.6983 26.3001 16.8024 25.4108 14.4354 23.0555C13.3969 22.022 12.7076 20.782 12.3207 19.3841C12.253 19.1387 12.2906 19.0075 12.5664 18.9516C12.8103 18.9022 13.0518 18.8277 13.2841 18.7394C13.5097 18.6535 13.6133 18.6883 13.6768 18.9354C14.1238 20.6897 15.1456 22.0723 16.6487 23.1179C17.9705 24.038 19.4552 24.5296 21.0844 24.5936C21.7737 24.6211 22.4622 24.6122 23.1406 24.4672C23.3211 24.4284 23.4848 24.4559 23.657 24.5199C24.5927 24.8673 25.5318 25.2051 26.4701 25.5453C26.8804 25.6943 27.1962 25.6392 27.4468 25.3752C27.6916 25.1176 27.715 24.8025 27.5179 24.4178C27.304 24.0015 27.1001 23.5795 26.8703 23.1705C26.7525 22.9599 26.7968 22.836 26.9781 22.6838C28.2915 21.579 29.1488 20.2094 29.4596 18.5417C29.8439 16.4788 29.3301 14.6168 28.0025 12.9856C26.5863 11.2442 24.683 10.3193 22.4287 10.0585C22.0469 10.0139 21.6567 10.0285 21.2707 10.0326C21.0351 10.035 20.9181 9.98802 20.9724 9.72074C21.0226 9.47452 21.0393 9.21777 21.0376 8.96588C21.0359 8.69698 21.1638 8.61923 21.4203 8.6249C22.3736 8.64677 23.3186 8.73424 24.2318 9.00476C27.3883 9.94104 29.5849 11.863 30.631 14.9375C30.8942 15.7126 31.0095 16.5145 30.9994 17.3325Z" fill="white"/>
<path d="M26.031 18.7993C25.0819 18.801 24.3274 18.0825 24.3249 17.1754C24.3224 16.2691 25.0777 15.5393 26.0218 15.5377C26.9634 15.5353 27.7254 16.2634 27.7279 17.1665C27.7296 18.0744 26.9776 18.7977 26.031 18.7993Z" fill="white"/>
<path d="M21.5477 18.7993C20.5801 18.7985 19.8198 18.0785 19.8198 17.1608C19.819 16.2796 20.5877 15.5385 21.5042 15.5353C22.4642 15.5328 23.2212 16.2569 23.222 17.1794C23.2229 18.0671 22.4659 18.8001 21.5477 18.7993Z" fill="white"/>
<path d="M16.7104 18.8001C16.3954 18.7944 15.9283 18.5393 15.5925 18.0469C15.478 17.8792 15.4847 17.7682 15.6769 17.654C16.4622 17.1883 17.1883 16.6465 17.8275 16.0018C17.9754 15.8527 18.0815 15.8868 18.2185 16.0139C18.6805 16.4391 18.8451 17.1535 18.6062 17.7488C18.3413 18.4073 17.7456 18.7985 16.7104 18.8001Z" fill="white"/>
</svg>

<svg width="31" height="27" viewBox="0 0 31 27" fill="none" xmlns="http://www.w3.org/2000/svg"><path d="M9.39 17.167c-.527.002-1.047-.015-1.561-.118-.154-.031-.287.026-.424.077-.83.3-1.656.617-2.492.9-1.437.487-2.758-.282-2.996-1.734-.075-.457.068-.879.278-1.284.3-.58.296-.581-.135-1.065a8.02 8.02 0 01-.013-10.72C3.686 1.379 5.76.279 8.26.056c3.97-.355 7.155 1.012 9.308 4.321 1.899 2.921 1.55 6.83-.758 9.465-1.943 2.216-4.443 3.276-7.42 3.326zm3.17-11.153c-.033-.996-.512-1.762-1.356-2.295-.868-.55-1.839-.673-2.852-.5-.696.118-1.314.39-1.813.887-.364.362-.4.797-.23 1.24.194.503.656.679 1.172.492.2-.072.362-.198.536-.31.491-.317 1.027-.451 1.607-.302.756.194.976.969.429 1.504-.175.171-.383.312-.58.46-.946.708-1.327 1.745-1.024 2.793.126.438.367.702.658.674.393-.04.516-.35.6-.656.167-.604.52-1.075 1.024-1.449.282-.209.575-.404.848-.623.616-.495 1.002-1.106.98-1.915zm-2.075 6.713c.013-.697-.419-1.151-1.104-1.165-.815-.016-1.301.388-1.315 1.094-.013.694.493 1.225 1.18 1.236.706.01 1.226-.48 1.239-1.165z" fill="#fff"/><path d="M31 17.332c-.032 2.166-.81 4.048-2.31 5.649-.159.17-.194.298-.078.5.202.354.404.71.44 1.127.148 1.69-1.42 2.83-3.065 2.23-.83-.302-1.66-.604-2.49-.908a.92.92 0 00-.456-.051c-3.343.421-6.239-.468-8.606-2.824-1.038-1.033-1.727-2.273-2.114-3.67-.068-.246-.03-.378.245-.433a4.59 4.59 0 00.718-.213c.226-.085.33-.05.393.196.447 1.755 1.469 3.137 2.972 4.183a8.18 8.18 0 004.435 1.476c.69.027 1.378.018 2.057-.127a.89.89 0 01.516.053c.936.347 1.875.685 2.813 1.025.41.15.726.094.977-.17.245-.257.268-.573.07-.957-.213-.416-.417-.838-.647-1.247-.117-.211-.073-.335.108-.487 1.313-1.105 2.17-2.475 2.482-4.142.384-2.063-.13-3.925-1.457-5.556-1.417-1.742-3.32-2.667-5.574-2.928-.382-.044-.772-.03-1.158-.025-.236.002-.353-.045-.299-.312a3.74 3.74 0 00.066-.755c-.002-.269.126-.347.382-.341.954.022 1.899.11 2.812.38 3.156.936 5.353 2.858 6.399 5.932.263.776.378 1.578.368 2.396z" fill="#fff"/><path d="M26.031 18.8c-.95.001-1.704-.718-1.706-1.625-.003-.906.753-1.636 1.697-1.637.941-.003 1.703.725 1.706 1.628.002.908-.75 1.632-1.697 1.633zm-4.483 0c-.968-.002-1.728-.722-1.728-1.64-.001-.88.768-1.621 1.684-1.625.96-.002 1.717.722 1.718 1.644 0 .888-.756 1.621-1.674 1.62zm-4.838 0c-.315-.006-.782-.26-1.118-.753-.114-.168-.107-.279.085-.393a10.658 10.658 0 002.15-1.652c.148-.15.254-.115.391.012.462.425.627 1.14.388 1.735-.265.658-.86 1.05-1.896 1.051z" fill="#fff"/></svg>
